coreui/free/cil-layers.svg

<svg xmlns="http://www.w3.org/2000/svg" viewBox="0 0 512 512">
  <path fill="var(--ci-primary-color, currentColor)" d="M487.938,162.108l-224-128a16,16,0,0,0-15.876,0l-224,128a16,16,0,0,0,.382,28l224,120a16,16,0,0,0,15.112,0l224-120a16,16,0,0,0,.382-28ZM256,277.849,65.039,175.548,256,66.428l190.961,109.12Z" class="ci-primary"/>
  <path fill="var(--ci-primary-color, currentColor)" d="M263.711,394.02,480,275.061V238.539L256,361.74,32,238.539v36.522L248.289,394.02a16.005,16.005,0,0,0,15.422,0Z" class="ci-primary"/>
  <path fill="var(--ci-primary-color, currentColor)" d="M32,362.667,248.471,478.118a16,16,0,0,0,15.058,0L480,362.667V326.4L256,445.867,32,326.4Z" class="ci-primary"/>
</svg>

<svg viewBox="0 0 512 512" xmlns="http://www.w3.org/2000/svg"><g><path d="M487.938 162.108l-224-128V34.1c-4.92-2.82-10.96-2.82-15.88 0l-224 128v0c-7.68 4.38-10.35 14.15-5.97 21.82 1.49 2.61 3.69 4.75 6.34 6.17l224 120h0c4.71 2.52 10.39 2.52 15.11 0l224-120v0c7.79-4.18 10.72-13.87 6.55-21.66 -1.43-2.66-3.56-4.86-6.18-6.35ZM256 277.848L65.03 175.538l190.96-109.12 190.961 109.12Z"/><path d="M263.71 394.02l216.28-118.96v-36.53l-224 123.2 -224-123.21v36.52l216.289 118.95v0c4.8 2.64 10.62 2.64 15.42 0Z"/><path d="M32 362.66l216.471 115.45v0c4.7 2.5 10.35 2.5 15.05 0l216.471-115.46v-36.27l-224 119.46 -224-119.47Z"/></g></svg>
